X:1
T:Fars lilla
R:Polska
O:Boda, Dalarna
Z: Qaryn Eng 2011-05-28
M:3/4
L:1/16
K:G
|: (3[cE]4Bc (3:2:2 d4B2 (3:2:2 G4B2 | (3A2F2G8 A4 |(3g4fg (3:2:2 a4f2 (3:2:2 d4f2 |1 (3e2^c2d8 e4 :| |2 (3e2^c2d8- d4 |
|: (3d4ef (3:2:2 g4f2 (3:2:2 e4d2 | (3:2:5 c2B2A4B2^G2 A4- | (3:2:2 A4B2 cdcB (3:2:2 c4e2 | (3:2:5 g2f2d4-d2c2 (3:2:2 B4A2 |
(3:2:2 G4B2 d4 (3:2:2 g4g2 | (3:2:5 b4a2b2a2f2 g4 | (3d4ed cdcB (3G4AG | (3FEF4 G8 :|

